images/logos/google.svg

<?xml version="1.0" encoding="UTF-8"?>
<svg width="100px" height="50px" viewBox="0 0 100 50" version="1.1" xmlns="http://www.w3.org/2000/svg" xmlns:xlink="http://www.w3.org/1999/xlink">
    <!-- Generator: Sketch 59.1 (86144) - https://sketch.com -->
    <title>google</title>
    <desc>Created with Sketch.</desc>
    <g id="Page-1" stroke="none" stroke-width="1" fill="none" fill-rule="evenodd">
        <g id="Artboard" fill-rule="nonzero">
            <g id="google">
                <path d="M44.8664,25.58128 C44.8664,28.98688 42.2024,31.49608 38.9336,31.49608 C35.66408,31.49608 33.00008,28.98688 33.00008,25.58128 C33.00008,22.15192 35.66408,19.66648 38.93288,19.66648 C42.2024,19.66648 44.8664,22.15192 44.8664,25.58128 Z M42.26936,25.58128 C42.26936,23.45368 40.72568,21.99712 38.9336,21.99712 C37.1408,21.99712 35.59712,23.45368 35.59712,25.58128 C35.59712,27.688 37.14152,29.16544 38.9336,29.16544 C40.72568,29.16544 42.26936,27.68512 42.26936,25.58128 L42.26936,25.58128 Z" id="Shape" fill="#EA4335"></path>
                <path d="M57.66656,25.58128 C57.66656,28.98688 55.00256,31.49608 51.73376,31.49608 C48.46424,31.49608 45.80024,28.98688 45.80024,25.58128 C45.80024,22.15408 48.46424,19.66648 51.73304,19.66648 C55.00256,19.66648 57.66656,22.15192 57.66656,25.58128 Z M55.06952,25.58128 C55.06952,23.45368 53.52512,21.99712 51.73304,21.99712 C49.94168,21.99712 48.39728,23.45368 48.39728,25.58128 C48.39728,27.688 49.94168,29.16544 51.73304,29.16544 C53.52584,29.16544 55.06952,27.68512 55.06952,25.58128 L55.06952,25.58128 Z" id="Shape" fill="#FBBC05"></path>
                <path d="M69.9332,20.02432 L69.9332,30.64288 C69.9332,35.0104 67.35704,36.79456 64.31216,36.79456 C61.44512,36.79456 59.72,34.8772 59.06912,33.30976 L61.33064,32.368 C61.73384,33.33064 62.72024,34.4668 64.30928,34.4668 C66.25832,34.4668 67.46648,33.2644 67.46648,31 L67.46648,30.14968 L67.37576,30.14968 C66.79472,30.8668 65.6744,31.4932 64.26104,31.4932 C61.304,31.4932 58.59464,28.91704 58.59464,25.60288 C58.59464,22.26424 61.304,19.66648 64.26104,19.66648 C65.67224,19.66648 66.79184,20.29288 67.37576,20.98912 L67.46648,20.98912 L67.46648,20.0272 L69.9332,20.0272 L69.9332,20.02504 L69.9332,20.02432 Z M67.6508,25.60288 C67.6508,23.51992 66.2612,21.99712 64.4936,21.99712 C62.7008,21.99712 61.20032,23.51992 61.20032,25.60288 C61.20032,27.66424 62.70152,29.16544 64.4936,29.16544 C66.2612,29.16544 67.6508,27.66424 67.6508,25.60288 Z" id="Shape" fill="#4285F4"></path>
                <polygon id="Path" fill="#34A853" points="73.99976 13.79992 73.99976 31.1332 71.4668 31.1332 71.4668 13.79992"></polygon>
                <path d="M83.87168,27.52816 L85.88768,28.87168 C85.23752,29.83432 83.66936,31.4932 80.96,31.4932 C77.59976,31.4932 75.09056,28.89616 75.09056,25.5784 C75.09056,22.0612 77.62136,19.66432 80.66912,19.66432 C83.73848,19.66432 85.23968,22.10656 85.73072,23.42632 L86,24.0988 L78.09368,27.37336 C78.69848,28.55992 79.64024,29.16544 80.96,29.16544 C82.28264,29.16544 83.19992,28.51456 83.87168,27.52816 Z M77.66672,25.39984 L82.95152,23.20528 C82.66136,22.46656 81.78656,21.95248 80.75768,21.95248 C79.4372,21.95248 77.59976,23.11744 77.66672,25.39984 Z" id="Shape" fill="#EA4335"></path>
                <path d="M23.4104,24.04264 L23.4104,21.53344 L31.8668,21.53344 C31.9496,21.97048 31.99208,22.48816 31.99208,23.04832 C31.99208,24.9304 31.47728,27.25888 29.8184,28.91704 C28.2056,30.59752 26.14424,31.4932 23.41328,31.4932 C18.35168,31.4932 14.09648,27.37048 14.09648,22.3096 C14.09576,17.248 18.35096,13.12528 23.41256,13.12528 C26.21264,13.12528 28.20776,14.224 29.70536,15.65608 L27.9356,17.42728 C26.86064,16.41928 25.4048,15.63448 23.40968,15.63448 C19.71392,15.63448 16.82312,18.61312 16.82312,22.30888 C16.82312,26.00536 19.71392,28.984 23.40968,28.984 C25.80728,28.984 27.1724,28.02136 28.0472,27.14656 C28.7564,26.43736 29.22296,25.42432 29.40728,24.03976 L23.40968,24.04264 L23.4104,24.04264 Z" id="Path" fill="#4285F4"></path>
            </g>
        </g>
    </g>
</svg>

<svg xmlns="http://www.w3.org/2000/svg" width="100" height="50"><g fill="#fff"><path d="M44.866 25.581c0 3.406-2.664 5.915-5.932 5.915-3.27 0-5.934-2.51-5.934-5.915 0-3.43 2.664-5.915 5.933-5.915 3.27 0 5.933 2.486 5.933 5.915Zm-2.597 0c0-2.127-1.543-3.584-3.335-3.584-1.793 0-3.337 1.457-3.337 3.584 0 2.107 1.545 3.584 3.337 3.584 1.792 0 3.335-1.48 3.335-3.584ZM57.667 25.581c0 3.406-2.664 5.915-5.933 5.915-3.27 0-5.934-2.51-5.934-5.915 0-3.427 2.664-5.915 5.933-5.915 3.27 0 5.934 2.486 5.934 5.915Zm-2.597 0c0-2.127-1.545-3.584-3.337-3.584-1.791 0-3.336 1.457-3.336 3.584 0 2.107 1.545 3.584 3.336 3.584 1.793 0 3.337-1.48 3.337-3.584ZM69.933 20.024v10.619c0 4.367-2.576 6.152-5.62 6.152-2.868 0-4.593-1.918-5.244-3.485l2.262-.942c.403.963 1.39 2.099 2.978 2.099 1.95 0 3.157-1.203 3.157-3.467v-.85h-.09c-.581.717-1.702 1.343-3.115 1.343-2.957 0-5.666-2.576-5.666-5.89 0-3.339 2.709-5.937 5.666-5.937 1.411 0 2.53.627 3.115 1.323h.09v-.962h2.467v-.002Zm-2.282 5.579c0-2.083-1.39-3.606-3.157-3.606-1.793 0-3.294 1.523-3.294 3.606 0 2.061 1.502 3.562 3.294 3.562 1.767 0 3.157-1.5 3.157-3.562ZM74 13.8v17.333h-2.533V13.8zM83.872 27.528l2.016 1.344c-.65.962-2.219 2.621-4.928 2.621-3.36 0-5.87-2.597-5.87-5.915 0-3.517 2.531-5.914 5.58-5.914 3.068 0 4.57 2.443 5.06 3.762l.27.673-7.906 3.274c.604 1.187 1.546 1.792 2.866 1.792 1.323 0 2.24-.65 2.912-1.637ZM77.667 25.4l5.285-2.195c-.29-.738-1.165-1.253-2.194-1.253-1.32 0-3.158 1.165-3.091 3.448ZM23.41 24.043v-2.51h8.457c.083.437.125.955.125 1.515 0 1.882-.515 4.21-2.174 5.869-1.612 1.68-3.674 2.576-6.405 2.576-5.061 0-9.317-4.123-9.317-9.183 0-5.062 4.255-9.185 9.317-9.185 2.8 0 4.795 1.099 6.292 2.531l-1.77 1.771c-1.074-1.008-2.53-1.793-4.525-1.793-3.696 0-6.587 2.98-6.587 6.675 0 3.696 2.89 6.675 6.587 6.675 2.397 0 3.762-.963 4.637-1.837.71-.71 1.176-1.723 1.36-3.107l-5.997.003Z"/></g></svg>
